X:1
T:El último tango en París
T:El último tango en París 
T:Gato Barbieri 
C:Gato Barbieri
%%score 1 2
L:1/8
Q:1/4=100
M:4/4
K:Bb
V:1 treble nm="Flauta" snm="Fl."
V:2 tab stafflines=6 strings=E2,A2,D3,G3,B3,E4 nm="Guitarra eléctrica" snm="Guit. El."
V:1
!f! A2 Bc A4 | z2 Bc A2 Bc | defd- d4 | z2 ef d2 cB | ABcA- A4 | z2 Bc A2 Bc | defd- d4 | %7
 z2 ef d2 ef | g_abg- g4 | z2 _ab g2 ab | c'_d'e'c'- c'4 | z2 _d'e' c'2 b_a | g_abg- g2 fe | %13
 defd- d2 z2 | c_d e2 =d=e ^f2 | =e^f g2 fg ^g2 || abc'a- a4 | z2 bc' a2 bc' | d'e'f'd'- d'4 | %19
 z2 ef d2 cB | ABcA- A4 | z2 Bc A2 Bc | defd- d4 | z2 ef d2 ef | g2 _ab g4 | z _a2 b g2 ab | %26
 c'2 _d'e' c'4 | z _d'2 e' c'2 b_a | g_abg- g4 | gfdd- d4 | g_abg- g4 | defd- d4 |] %32
V:2
 [!6!G,,!5!D,!4!F,!3!B,!2!D!1!G]8 | x8 | [!5!C,!3!B,!2!E!1!G]8 | x8 | %4
 [!6!G,,!5!D,!4!F,!3!B,!2!D!1!G]8 | x8 | [!5!C,!3!B,!2!E!1!G]8 | x8 | %8
 [!6!F,,!5!C,!4!E,!3!_A,!2!C!1!F]8 | x8 | [!6!F,,!4!F,!3!_A,!2!_D!1!F]8 | x8 | %12
 [!6!F,,!5!C,!4!E,!3!_A,!2!C!1!F]8 | [!5!C,!3!B,!2!E!1!G]8 | %14
 [!5!B,,!4!F,!3!_A,!2!_D!1!F]4 [!5!=B,,!4!D,!3!=A,!2!=B,!1!^F]4 | %15
 [!5!A,,!4!=E,!3!G,!2!C!1!=E]4 [!4!D,!3!A,!2!C!1!^F]4 || [!6!G,,!5!D,!4!F,!3!B,!2!D!1!G]8 | x8 | %18
 [!5!C,!3!B,!2!E!1!G]8 | x8 | [!6!G,,!5!D,!4!F,!3!B,!2!D!1!G]8 | x8 | [!5!C,!3!B,!2!E!1!G]8 | x8 | %24
 [!6!F,,!5!C,!4!E,!3!_A,!2!C!1!F]8 | x8 | [!5!B,,!4!F,!3!_A,!2!_D!1!F]8 | x8 | %28
 [!6!F,,!5!C,!4!E,!3!_A,!2!C!1!F]8 | [!5!C,!3!B,!2!E!1!G]8 | [!6!F,,!5!C,!4!E,!3!_A,!2!C!1!F]8 | %31
 [!5!C,!3!B,!2!E!1!G]8 |] %32

